public/logo.svg

<svg width="222" height="222" viewBox="0 0 222 222" fill="none" xmlns="http://www.w3.org/2000/svg">
<path d="M221.3 87.38C221.23 86.19 221.1 83.87 221.02 82.22C220.94 80.58 220.81 78.4 220.74 77.41C220.66 76.41 220.48 73.94 220.32 71.91C220.17 69.87 220.01 67.96 219.97 67.66C219.93 67.35 219.8 66 219.69 64.66C219.58 63.32 219.45 62.07 219.41 61.87C219.37 61.67 219.21 60.39 219.06 59.01C218.7 55.68 218.25 52 218.15 51.57C218.11 51.37 217.95 50.26 217.8 49.12C217.12 43.91 215.85 36.65 214.76 31.7C214.61 31 214.36 29.87 214.2 29.19C213.81 27.41 213.35 25.61 213.2 25.29C213.13 25.14 213 24.76 212.91 24.45C212.6 23.42 211.06 19.98 210.67 19.43C210.61 19.35 210.17 18.69 209.69 17.97C208.7 16.48 206.17 13.83 204.65 12.72C201.64 10.5 198.29 8.99996 193.97 7.93996C193.23 7.75996 192.48 7.56996 191.74 7.37996C191.22 7.22996 190.19 6.99996 187.98 6.53996C187.35 6.40996 186.72 6.26996 186.1 6.13996C183.41 5.48996 174.66 4.05996 168.96 3.33996C167.82 3.19996 166.69 3.04996 166.45 2.98996C166.03 2.89996 164.01 2.69996 159.9 2.28996C158.76 2.17996 157.18 2.00996 156.42 1.93996C155.65 1.85996 154.27 1.72996 153.35 1.64996C152.43 1.57996 150.92 1.44996 150 1.38996C146.88 1.11996 138.21 0.619961 133.41 0.409961C124.14 0.00996059 107.03 -0.120039 96.4096 0.149961C90.0296 0.299961 85.3396 0.529961 76.7596 1.05996C72.7896 1.29996 68.4496 1.64996 65.3996 1.94996C64.6296 2.02996 63.0296 2.18996 61.8496 2.29996C56.8696 2.78996 49.4896 3.71996 46.3796 4.24996C45.7196 4.35996 44.7596 4.51996 44.2196 4.59996C43.6896 4.66996 42.7396 4.83996 42.1296 4.94996C41.5196 5.05996 40.4896 5.25996 39.8296 5.36996C37.5296 5.75996 33.6096 6.55996 31.3996 7.08996C30.7896 7.23996 29.6796 7.50996 28.9596 7.67996C28.2296 7.84996 27.5796 7.99996 27.4996 8.00996C23.4096 8.97996 19.3596 10.95 16.2396 13.5C13.1996 15.97 10.4796 19.95 9.11963 23.91C8.89963 24.52 8.66963 25.15 8.59963 25.3C8.35963 25.83 7.32963 30.29 6.58963 33.94C6.47963 34.55 6.27963 35.46 6.16963 35.96C6.05963 36.46 5.90963 37.34 5.80963 37.91C5.72963 38.48 5.60963 39.18 5.53963 39.44C5.32963 40.24 4.47963 45.67 3.93963 49.61C3.40963 53.43 3.05963 56.2 2.75963 59.02C2.60963 60.4 2.44963 61.75 2.42963 62.02C2.38963 62.28 2.25963 63.64 2.13963 65.02C2.02963 66.4 1.85963 68.09 1.77963 68.78C1.48963 71.34 0.759629 82.51 0.399629 90.38C0.119629 96.22 -0.0603706 108.72 0.0396294 115.54C0.139629 124.04 0.349629 131.64 0.539629 134.29C0.609629 135.36 0.749629 137.62 0.829629 139.31C0.909629 141 1.02963 143.16 1.09963 144.12C1.41963 148.94 1.66963 152.11 1.79963 153.11C1.86963 153.72 2.03963 155.36 2.14963 156.72C2.25963 158.09 2.42963 159.72 2.49963 160.34C2.57963 160.97 2.73963 162.32 2.84963 163.35C3.19963 166.65 3.45963 168.81 3.68963 170.25C3.79963 171.02 3.99963 172.33 4.10963 173.18C4.50963 176.25 4.98963 179.23 5.49963 181.96C5.60963 182.57 5.78963 183.6 5.91963 184.26C6.15963 185.65 6.69963 188.43 7.08963 190.18C8.42963 196.33 9.00963 198.17 10.5896 201.19C11.0196 202.03 11.5796 203 11.8296 203.35C12.0696 203.7 12.4196 204.2 12.5996 204.47C13.3896 205.65 15.6696 207.97 16.9196 208.86C17.1296 209.01 17.5296 209.3 17.7996 209.51C18.0796 209.73 18.3396 209.9 18.4096 209.9C18.4696 209.9 18.6096 210 18.7196 210.11C19.2596 210.64 23.0996 212.47 24.7396 212.95C25.0496 213.05 25.4196 213.17 25.5796 213.24C25.9396 213.41 27.9896 213.92 30.4596 214.48C31.5296 214.73 32.6296 214.99 32.8996 215.07C33.5396 215.24 37.5796 216.04 40.6396 216.6C42.3996 216.92 45.8096 217.46 47.9596 217.77C48.7696 217.88 49.7996 218.03 50.2596 218.12C51.9496 218.41 58.9196 219.22 63.2896 219.64C64.8596 219.79 66.7996 219.97 67.6096 220.06C68.9196 220.2 70.2596 220.31 76.6696 220.77C77.6296 220.84 79.8196 220.97 81.5496 221.05C83.2796 221.13 85.6896 221.26 86.9196 221.33C96.8396 221.9 125.22 221.9 135 221.33C136.23 221.25 138.64 221.13 140.37 221.05C143.34 220.91 144.43 220.84 149.08 220.49C155.04 220.03 163.81 219.18 166.78 218.76C167.63 218.64 169.09 218.44 170.06 218.31C173.61 217.85 178.49 217.11 181.28 216.6C184.33 216.04 188.37 215.23 189.02 215.07C189.28 215 190.38 214.74 191.46 214.48C193.87 213.94 195.96 213.41 196.34 213.24C196.8 213.07 197.27 212.91 197.73 212.75C198.87 212.37 202.66 210.58 202.98 210.27C203.08 210.17 203.36 209.96 203.59 209.82C204.68 209.14 205.18 208.75 206.17 207.86C207.29 206.84 208.83 205.17 209.21 204.6C209.33 204.4 209.67 203.93 209.95 203.56C210.24 203.17 210.48 202.82 210.48 202.77C210.48 202.71 210.7 202.32 210.97 201.91C211.24 201.49 211.56 200.88 211.68 200.54C211.82 200.22 211.96 199.87 212.01 199.8C212.27 199.45 213.25 196.68 213.67 195.1C214.33 192.66 215.55 186.91 216 184.19C216.11 183.49 216.24 182.84 216.28 182.73C216.41 182.42 217.17 177.64 217.87 172.77C218.02 171.7 218.18 170.62 218.22 170.4C218.33 169.76 218.83 165.48 219.06 163.22C219.17 162.1 219.32 160.82 219.41 160.36C219.5 159.9 219.65 158.4 219.76 157.01C219.87 155.63 220.03 153.93 220.09 153.25C220.17 152.55 220.3 150.97 220.38 149.7C220.46 148.43 220.59 146.87 220.66 146.22C220.74 145.57 220.9 143.15 221.01 140.85C221.14 138.55 221.28 135.72 221.36 134.58C221.93 124.42 221.93 97.83 221.3 87.38Z" fill="#559FB8"/>
<path d="M145.48 124.164L149.72 126.614L171.04 163.534L161.06 169.294L139.74 132.374V127.484C141.87 126.744 143.81 125.604 145.48 124.164Z" fill="white"/>
<path d="M137.83 125.203L144.48 121.363L143.52 123.023L145.49 124.163C143.82 125.603 141.88 126.743 139.76 127.483V125.203H137.83Z" fill="white"/>
<path d="M147.27 122.371L149.72 126.611L145.48 124.161C146.12 123.601 146.72 123.001 147.27 122.371Z" fill="white"/>
<path d="M144.47 121.362L146.13 120.402L147.27 122.372C146.72 123.012 146.12 123.612 145.48 124.162L143.51 123.022L144.47 121.362Z" fill="white"/>
<path d="M139.75 127.473V132.363L137.3 128.123C138.14 127.973 138.95 127.753 139.75 127.473Z" fill="white"/>
<path d="M137.83 125.203H139.75V127.483C138.96 127.753 138.14 127.973 137.3 128.133L136.16 126.163L137.83 125.203Z" fill="white"/>
<path d="M128.23 127.472V132.362L97.8101 185.062L87.8301 179.302L118.25 126.602L122.49 124.152C124.16 125.602 126.1 126.742 128.23 127.472Z" fill="white"/>
<path d="M123.5 121.363L130.15 125.203H128.23V127.483C126.1 126.743 124.16 125.613 122.5 124.163L124.47 123.023L123.5 121.363Z" fill="white"/>
<path d="M130.67 128.13L128.22 132.37V127.48C129.02 127.75 129.84 127.97 130.67 128.13Z" fill="white"/>
<path d="M130.15 125.203L131.81 126.163L130.67 128.133C129.83 127.973 129.02 127.753 128.22 127.483V125.203H130.15Z" fill="white"/>
<path d="M122.49 124.161L118.25 126.611L120.7 122.371C121.26 123.001 121.85 123.601 122.49 124.161Z" fill="white"/>
<path d="M123.5 121.362L124.46 123.022L122.49 124.162C121.85 123.612 121.25 123.012 120.7 122.372L121.84 120.402L123.5 121.362Z" fill="white"/>
<path d="M139.75 94.2748V89.3848L161.07 52.4648L171.05 58.2248L149.73 95.1448L145.49 97.5948C143.81 96.1448 141.87 95.0148 139.75 94.2748Z" fill="white"/>
<path d="M144.47 100.393L137.82 96.5534H139.74V94.2734C141.87 95.0134 143.81 96.1434 145.47 97.5934L143.5 98.7334L144.47 100.393Z" fill="white"/>
<path d="M145.479 97.5945L149.719 95.1445L147.27 99.3845C146.72 98.7445 146.119 98.1445 145.479 97.5945Z" fill="white"/>
<path d="M144.47 100.394L143.51 98.7338L145.48 97.5938C146.12 98.1438 146.72 98.7438 147.27 99.3838L146.13 101.354L144.47 100.394Z" fill="white"/>
<path d="M137.3 93.6267L139.75 89.3867V94.2767C138.95 93.9967 138.14 93.7867 137.3 93.6267Z" fill="white"/>
<path d="M137.83 96.555L136.17 95.595L137.31 93.625C138.15 93.785 138.96 94.005 139.76 94.275V96.555H137.83Z" fill="white"/>
<path d="M32.54 105.117H112.5L116.74 107.567C116.54 108.637 116.42 109.747 116.42 110.877C116.42 112.007 116.53 113.117 116.74 114.187L112.5 116.637H32.54V105.117Z" fill="white"/>
<path d="M119.66 107.035V114.715L118.7 113.055L116.73 114.195C116.53 113.125 116.41 112.015 116.41 110.885C116.41 109.755 116.52 108.645 116.73 107.575L118.7 108.715L119.66 107.035Z" fill="white"/>
<path d="M117.39 116.634H112.5L116.74 114.184C116.89 115.024 117.11 115.844 117.39 116.634Z" fill="white"/>
<path d="M119.66 114.717V116.637H117.38C117.11 115.847 116.89 115.027 116.73 114.187L118.7 113.047L119.66 114.717Z" fill="white"/>
<path d="M116.73 107.567L112.49 105.117H117.38C117.11 105.907 116.89 106.727 116.73 107.567Z" fill="white"/>
<path d="M119.66 105.115V107.035L118.7 108.695L116.73 107.555C116.89 106.715 117.11 105.905 117.38 105.105H119.66V105.115Z" fill="white"/>
<path d="M122.49 97.5936L118.25 95.1436L87.8301 42.4436L97.8101 36.6836L128.23 89.3836V94.2736C126.1 95.0136 124.16 96.1436 122.49 97.5936Z" fill="white"/>
<path d="M130.15 96.5534L123.5 100.393L124.46 98.7334L122.49 97.5934C124.16 96.1534 126.1 95.0134 128.22 94.2734V96.5534H130.15Z" fill="white"/>
<path d="M128.23 94.2728V89.3828L130.68 93.6228C129.84 93.7828 129.02 93.9928 128.23 94.2728Z" fill="white"/>
<path d="M130.15 96.555H128.23V94.275C129.02 94.005 129.84 93.785 130.68 93.625L131.82 95.595L130.15 96.555Z" fill="white"/>
<path d="M120.7 99.3845L118.25 95.1445L122.49 97.5945C121.85 98.1445 121.26 98.7445 120.7 99.3845Z" fill="white"/>
<path d="M123.5 100.394L121.84 101.354L120.7 99.3838C121.25 98.7438 121.85 98.1438 122.49 97.5938L124.46 98.7338L123.5 100.394Z" fill="white"/>
<path d="M189.23 105.113H155.48H150.59H148.31V107.033V114.713V116.633H150.59H155.48H189.23V105.113Z" fill="white"/>
<path d="M150.59 116.633H155.48L187 134.833L181.24 144.813L149.72 126.613L147.27 122.373C148.72 120.703 149.85 118.763 150.59 116.633Z" fill="white"/>
<path d="M144.47 121.361L148.31 114.711V116.631H150.59C149.85 118.761 148.72 120.701 147.27 122.361L146.13 120.391L144.47 121.361Z" fill="white"/>
<path d="M133.99 128.445C135.12 128.445 136.229 128.335 137.299 128.125L139.749 132.365V185.735H128.229V132.365L130.679 128.125C131.749 128.335 132.85 128.445 133.99 128.445Z" fill="white"/>
<path d="M130.149 125.203H137.829L136.169 126.163L137.309 128.133C136.239 128.333 135.129 128.453 133.999 128.453C132.869 128.453 131.759 128.343 130.689 128.133L131.829 126.163L130.149 125.203Z" fill="white"/>
<path d="M120.7 122.373L118.25 126.613L55.2598 162.983L49.5098 153.003L112.5 116.633H117.39C118.12 118.763 119.26 120.703 120.7 122.373Z" fill="white"/>
<path d="M119.66 114.711L123.5 121.361L121.84 120.401L120.7 122.371C119.26 120.701 118.12 118.761 117.38 116.641H119.66V114.711Z" fill="white"/>
<path d="M147.27 99.3814L149.72 95.1414L181.24 76.9414L187 86.9214L155.48 105.121H150.59C149.85 102.991 148.72 101.041 147.27 99.3814Z" fill="white"/>
<path d="M148.31 107.031L144.47 100.381L146.13 101.341L147.27 99.3711C148.71 101.041 149.85 102.981 150.59 105.101H148.31V107.031Z" fill="white"/>
<path d="M133.99 93.3017C132.86 93.3017 131.749 93.4117 130.679 93.6217L128.229 89.3817V36.0117H139.749V89.3817L137.299 93.6217C136.229 93.4117 135.12 93.3017 133.99 93.3017Z" fill="white"/>
<path d="M137.829 96.5508H130.149L131.809 95.5908L130.669 93.6208C131.739 93.4208 132.849 93.3008 133.979 93.3008C135.109 93.3008 136.219 93.4108 137.289 93.6208L136.149 95.5908L137.829 96.5508Z" fill="white"/>
<path d="M117.39 105.113H112.5L49.5098 68.7534L55.2698 58.7734L118.26 95.1434L120.71 99.3834C119.26 101.043 118.12 102.993 117.39 105.113Z" fill="white"/>
<path d="M123.5 100.395L119.66 107.045V105.125H117.38C118.12 102.995 119.25 101.055 120.7 99.3945L121.84 101.365L123.5 100.395Z" fill="white"/>
</svg>

<?xml version="1.0" encoding="UTF-8"?>
<svg id="Camada_1" xmlns="http://www.w3.org/2000/svg" version="1.1" viewBox="0 0 222 222">
  <!-- Generator: Adobe Illustrator 29.8.2, SVG Export Plug-In . SVG Version: 2.1.1 Build 3)  -->
  <defs>
    <style>
      .st0 {
        fill: #fff;
      }

      .st1 {
        fill: #559fb8;
      }
    </style>
  </defs>
  <path class="st1" d="M221.3,87.38c-.07-1.19-.2-3.51-.28-5.16-.08-1.64-.21-3.82-.28-4.81-.08-1-.26-3.47-.42-5.5-.15-2.04-.31-3.95-.35-4.25-.04-.31-.17-1.66-.28-3-.11-1.34-.24-2.59-.28-2.79-.04-.2-.2-1.48-.35-2.86-.36-3.33-.81-7.01-.91-7.44-.04-.2-.2-1.31-.35-2.45-.68-5.21-1.95-12.47-3.04-17.42-.15-.7-.4-1.83-.56-2.51-.39-1.78-.85-3.58-1-3.9-.07-.15-.2-.53-.29-.84-.31-1.03-1.85-4.47-2.24-5.02-.06-.08-.5-.74-.98-1.46-.99-1.49-3.52-4.14-5.04-5.25-3.01-2.22-6.36-3.72-10.68-4.78-.74-.18-1.49-.37-2.23-.56-.52-.15-1.55-.38-3.76-.84-.63-.13-1.26-.27-1.88-.4-2.69-.65-11.44-2.08-17.14-2.8-1.14-.14-2.27-.29-2.51-.35-.42-.09-2.44-.29-6.55-.7-1.14-.11-2.72-.28-3.48-.35-.77-.08-2.15-.21-3.07-.29-.92-.07-2.43-.2-3.35-.26-3.12-.27-11.79-.77-16.59-.98C124.14,0,107.03-.12,96.41.15c-6.38.15-11.07.38-19.65.91-3.97.24-8.31.59-11.36.89-.77.08-2.37.24-3.55.35-4.98.49-12.36,1.42-15.47,1.95-.66.11-1.62.27-2.16.35-.53.07-1.48.24-2.09.35-.61.11-1.64.31-2.3.42-2.3.39-6.22,1.19-8.43,1.72-.61.15-1.72.42-2.44.59-.73.17-1.38.32-1.46.33-4.09.97-8.14,2.94-11.26,5.49-3.04,2.47-5.76,6.45-7.12,10.41-.22.61-.45,1.24-.52,1.39-.24.53-1.27,4.99-2.01,8.64-.11.61-.31,1.52-.42,2.02s-.26,1.38-.36,1.95c-.08.57-.2,1.27-.27,1.53-.21.8-1.06,6.23-1.6,10.17-.53,3.82-.88,6.59-1.18,9.41-.15,1.38-.31,2.73-.33,3-.04.26-.17,1.62-.29,3-.11,1.38-.28,3.07-.36,3.76-.29,2.56-1.02,13.73-1.38,21.6-.28,5.84-.46,18.34-.36,25.16.1,8.5.31,16.1.5,18.75.07,1.07.21,3.33.29,5.02s.2,3.85.27,4.81c.32,4.82.57,7.99.7,8.99.07.61.24,2.25.35,3.61.11,1.37.28,3,.35,3.62.08.63.24,1.98.35,3.01.35,3.3.61,5.46.84,6.9.11.77.31,2.08.42,2.93.4,3.07.88,6.05,1.39,8.78.11.61.29,1.64.42,2.3.24,1.39.78,4.17,1.17,5.92,1.34,6.15,1.92,7.99,3.5,11.01.43.84.99,1.81,1.24,2.16.24.35.59.85.77,1.12.79,1.18,3.07,3.5,4.32,4.39.21.15.61.44.88.65.28.22.54.39.61.39.06,0,.2.1.31.21.54.53,4.38,2.36,6.02,2.84.31.1.68.22.84.29.36.17,2.41.68,4.88,1.24,1.07.25,2.17.51,2.44.59.64.17,4.68.97,7.74,1.53,1.76.32,5.17.86,7.32,1.17.81.11,1.84.26,2.3.35,1.69.29,8.66,1.1,13.03,1.52,1.57.15,3.51.33,4.32.42,1.31.14,2.65.25,9.06.71.96.07,3.15.2,4.88.28,1.73.08,4.14.21,5.37.28,9.92.57,38.3.57,48.08,0,1.23-.08,3.64-.2,5.37-.28,2.97-.14,4.06-.21,8.71-.56,5.96-.46,14.73-1.31,17.7-1.73.85-.12,2.31-.32,3.28-.45,3.55-.46,8.43-1.2,11.22-1.71,3.05-.56,7.09-1.37,7.74-1.53.26-.07,1.36-.33,2.44-.59,2.41-.54,4.5-1.07,4.88-1.24.46-.17.93-.33,1.39-.49,1.14-.38,4.93-2.17,5.25-2.48.1-.1.38-.31.61-.45,1.09-.68,1.59-1.07,2.58-1.96,1.12-1.02,2.66-2.69,3.04-3.26.12-.2.46-.67.74-1.04.29-.39.53-.74.53-.79,0-.06.22-.45.49-.86.27-.42.59-1.03.71-1.37.14-.32.28-.67.33-.74.26-.35,1.24-3.12,1.66-4.7.66-2.44,1.88-8.19,2.33-10.91.11-.7.24-1.35.28-1.46.13-.31.89-5.09,1.59-9.96.15-1.07.31-2.15.35-2.37.11-.64.61-4.92.84-7.18.11-1.12.26-2.4.35-2.86s.24-1.96.35-3.35c.11-1.38.27-3.08.33-3.76.08-.7.21-2.28.29-3.55s.21-2.83.28-3.48c.08-.65.24-3.07.35-5.37.13-2.3.27-5.13.35-6.27.57-10.16.57-36.75-.06-47.2Z"/>
  <g>
    <path class="st0" d="M113.24,38.01l14.56-1.15c1.06-.08,1.97.74,1.99,1.8l1.03,48.92c.02,1.01-.77,1.84-1.77,1.88l-3.93.15c-.88.03-1.66-.55-1.86-1.41l-11.66-47.92c-.27-1.1.51-2.19,1.65-2.27Z"/>
    <path class="st0" d="M89.26,39.69l-12.74,7.72c-.95.58-1.18,1.85-.49,2.72l34.16,43.19c.53.67,1.44.89,2.21.53l4.12-1.88c.96-.44,1.36-1.59.87-2.53l-25.53-49.04c-.49-.95-1.68-1.28-2.59-.73Z"/>
    <path class="st0" d="M58.13,59.4l-8.18,13.24c-.55.89-.25,2.06.67,2.58l51.59,28.93c.85.48,1.93.21,2.45-.61l2.27-3.54c.5-.78.35-1.81-.36-2.41l-45.68-38.63c-.86-.73-2.17-.52-2.76.44Z"/>
    <path class="st0" d="M138.35,91.35l3.02,1.47c.89.43,1.96.09,2.43-.79l19.09-35.55c.53-.98.07-2.2-.97-2.6l-14.18-5.36c-1.06-.4-2.24.25-2.46,1.36l-7.94,39.44c-.17.82.25,1.65,1,2.02Z"/>
    <path class="st0" d="M150.04,100.5l1.88,3.03c.51.83,1.58,1.11,2.44.65l28.13-15.06c1.04-.56,1.3-1.94.52-2.83l-9.86-11.38c-.74-.85-2.06-.85-2.79,0l-20.15,23.4c-.53.61-.59,1.49-.17,2.18Z"/>
    <path class="st0" d="M156.7,114.62l24.07-5.88c1.16-.28,2.28.6,2.28,1.79v14.54c0,1.15-1.03,2.01-2.16,1.82l-24.07-4.22c-.88-.15-1.53-.92-1.53-1.82v-4.44c0-.85.58-1.59,1.41-1.79Z"/>
    <path class="st0" d="M151.76,132.39l22.09,12.22c1.04.57,1.27,1.97.48,2.85l-9.65,10.69c-.78.86-2.15.8-2.84-.13l-15.06-20.01c-.53-.71-.49-1.69.1-2.35l2.62-2.9c.57-.64,1.51-.79,2.26-.38Z"/>
    <path class="st0" d="M137.36,141.51l-5.11,1.31c-.82.21-1.39.94-1.39,1.79v30.61c0,1.14,1.02,2,2.14,1.82l15.31-2.52c1.13-.19,1.82-1.34,1.44-2.42l-10.2-29.4c-.31-.91-1.27-1.42-2.2-1.18Z"/>
    <path class="st0" d="M123.61,142.64l-5.78-1.66c-.82-.24-1.7.12-2.12.87l-19.58,34.77c-.54.96-.12,2.18.9,2.61l13.87,5.78c1.01.42,2.17-.13,2.48-1.18l11.48-38.89c.29-.98-.28-2.01-1.26-2.3Z"/>
    <path class="st0" d="M107.95,133.81l3.42,3.27c.75.72.76,1.92.02,2.65l-35.21,34.57c-.77.76-2.03.69-2.72-.15l-9.29-11.33c-.7-.85-.5-2.12.43-2.72l41.08-26.51c.72-.46,1.66-.37,2.27.22Z"/>
    <path class="st0" d="M102.21,122.57l1.91,5.25c.36.98-.17,2.07-1.17,2.39l-52.16,16.7c-1.01.32-2.08-.27-2.35-1.29l-3.89-14.79c-.28-1.07.44-2.15,1.54-2.3l54.13-7.16c.86-.11,1.68.38,1.97,1.2Z"/>
    <path class="st0" d="M101.78,111.71l-.32,2.82c-.11.98-.98,1.71-1.97,1.63l-59.24-4.38c-1.12-.08-1.9-1.13-1.67-2.23l3.55-16.56c.23-1.07,1.33-1.7,2.37-1.37l56.01,18.13c.83.27,1.36,1.09,1.26,1.96Z"/>
  </g>
</svg>
